X:1
T:The Cúil Aodha
R:polka
M:2/4
L:1/8
K:A
|:Ac EF|A2 Af|e>c BA|e/f/e/c/ Bc/B/|
|Ac EF|A2 Af|ec B/c/A/B/|1 cA Ac/B/:|2 cA A>B|]
|ce ce|a2 af|e>c BA|e/f/e/c/ BA/B/|
|ce ce|a2 af|ec B/c/A/B/|cA A>B|
|ce ce|a2 af|e>c BA|e/f/e/c/ Bc/B/|
|Ac EF|A2 Af|ec B/c/A/B/|cA Ac/B/|